src/ui/pending.svg

<?xml version="1.0" encoding="UTF-8"?><svg xmlns="http://www.w3.org/2000/svg" width="32" height="32" viewBox="0 0 32 32"><defs><style>.uuid-4b3a9da9-a76d-4e87-9bd9-78566c0e3ccd{fill:none;}.uuid-a1e3b231-92c7-4ddf-ad37-c78629a83222{fill:#151515;}</style></defs><g id="uuid-3f46aae8-32cb-431b-9038-577e2a47404b"><rect class="uuid-4b3a9da9-a76d-4e87-9bd9-78566c0e3ccd" width="32" height="32"/></g><g id="uuid-56e7bbef-1f5a-455d-98b9-24f601637000"><path class="uuid-a1e3b231-92c7-4ddf-ad37-c78629a83222" d="M26,29h-1v-3.75732c0-1.06836-.41602-2.07324-1.17188-2.82861l-6.41406-6.41406,6.41406-6.41406c.75586-.75537,1.17188-1.76025,1.17188-2.82861v-3.75732h1c.55225,0,1-.44775,1-1s-.44775-1-1-1H6c-.55225,0-1,.44775-1,1s.44775,1,1,1h1v3.75732c0,1.06836.41602,2.07324,1.17188,2.82861l6.41406,6.41406-6.41406,6.41406c-.75586.75537-1.17188,1.76025-1.17188,2.82861v3.75732h-1c-.55225,0-1,.44775-1,1s.44775,1,1,1h20c.55225,0,1-.44775,1-1s-.44775-1-1-1ZM9.02368,7c-.00977-.08057-.02368-.16028-.02368-.24268v-3.75732h14v3.75732c0,.0824-.01392.16211-.02368.24268h-13.95264ZM23,29h-14v-3.75732c0-.53418.20801-1.03662.58594-1.41455l6.41406-6.41406,6.41406,6.41406c.37793.37793.58594.88037.58594,1.41455v3.75732Z"/></g></svg>

<svg xmlns="http://www.w3.org/2000/svg" viewBox="0 0 32 32">
  <path d="M26 29h-1v-3.757a3.975 3.975 0 0 0-1.172-2.829L17.414 16l6.414-6.414A3.972 3.972 0 0 0 25 6.757V3h1a1 1 0 0 0 0-2H6a1 1 0 0 0 0 2h1v3.757c0 1.068.416 2.073 1.172 2.829L14.586 16l-6.414 6.414A3.972 3.972 0 0 0 7 25.243V29H6a1 1 0 0 0 0 2h20a1 1 0 0 0 0-2ZM9.024 7C9.014 6.919 9 6.84 9 6.757V3h14v3.757c0 .082-.014.162-.024.243H9.023ZM23 29H9v-3.757c0-.534.208-1.037.586-1.415L16 17.414l6.414 6.414c.378.378.586.88.586 1.415V29Z"/>
</svg>
